X:274
T:Waltzing Matilda
Z:Jack Campin, http://www.campin.me.uk/
F:Jack Campin's Nine-Note Tunebook
% last edit 03-02-2013
B:The Bushwhackers Australian Song Book, 1981
N:the original tune, they say
M:6/8
L:1/8
Q:3/8=100
K:C
    C2C C2C|c3   c3 |A3  A2B| A2G  E3 |
    C3  C2C|c3   c2B|A2A A3 | G3
zAB|c3  d2c|B3   G3 |A2G A2B|(A2G) E3 |
    C3  C2C|c2c- c2c|D3  E2D| C3   z3|]

